X: 1
T: Skirmish
C: Nick Barber
M: C|
L: 1/8
K: D
% text Don't play pickups at start of set.
de |\
"D"f4 edce | d4 ABAG |\
[1,3 F2A2D2A2 | "G"BAGF "A"E2 de :|\
[2,4 F2A2 "A"EFGE | F2E2"D"D2 :|
|: AG |\
"D"F2A2"A"E2A2 | "D"F2A2"A"E2A2 |\
[1,3 "D"F2A2 "A"E2A2 | "G"BAGF "A"E2 DE :|\
[2,4 "D"F2A2 "A"EFGE | "A"F2E2"D"D2 :|
